T: Tyrone March, The
M: 4/4
L: 1/8
K: Amix
|: e3 f e2 A2 | Bc d2 e4 | d3 d d2 dc | B2 A2 Bc d2 |
e3 f e2 A2 | Bc d2 e2 cc | d2 c2 B2 ed |1 c2 A2 A4 :|
2 [M:3/4] c2 A2- A2 ||
|: a2 g2 f2 |
[M:4/4] e2 ed e2 ed | [M:3/4] e2 f2 A2 | a2 g2 f2 |
[M:4/4] e2 ed e2 ed | [M:3/4] e2 f2- f2 | a2 g2 f2 |
[M:4/4] e2 ed e2 ed | e2 f2 ABcd | e2 ef e2 d/e/d |1 [M:3/4] c2 A2- A2 :|
2 [M:4/4] c2 A2 A4 ||
